X:1674
T:Bobbing Joan. JC.059
M:3/4
L:1/8
Q:110
S:John Clare,Poet,Helpston. (1793-1864)
R:Double Hornpipe
O:England
A:Northamptonshire
N:MR.Bars 1 & 2, dot added to the fourth note.
Z:P Headford
K:D
e<cc<Ac2|e<cc<A Bd|eccAc2|G/A/B/c/ dG Bd:|!
|:cegce2|cefc eg|aegd d2|GBdG Bd:|]
W:Song text exists.(or not). See Deacon.


